X:1
T:Title
L:1/8
M:4/4
K:Bb
V:1 treble nm="Grand Piano"
V:1
 z4 z[Q:1/4=100] C2 D | E2 ^F2 G2 A2 | BA G2- G C2 D | E2 ^F2 G2 A2 | BA G2- G c2 c | %5
 cBAG- G G2 ^F | ED C2- C c2 c | cBAG- G G2 ^F | ED C2- C C2 C | ED C2- C G2 G | G^FED C C2 C | %11
 ED C2- C G2 G |[M:5/8] G^FE DC |[M:3/8] c2 c |[M:4/4] ed c2- c c2 c | e2 e2 dcc=B | %16
 =B_A A2- A G2 ^F | ED C2- C C2 D | E2 ^F2 G2 A2 | BA G2 F c2 c | cB A2- A G2 ^F | ED C2- C C2 C | %22
 ED C2- C G2 G | G^FED C C2 C | ED C2- C G2 G | G^FED .C2 z2 |] %26

